www_src/static/img/camera.svg

<?xml version="1.0" encoding="UTF-8" standalone="no"?>
<svg width="27px" height="23px" viewBox="0 0 27 23" version="1.1" xmlns="http://www.w3.org/2000/svg" xmlns:xlink="http://www.w3.org/1999/xlink" xmlns:sketch="http://www.bohemiancoding.com/sketch/ns">
    <!-- Generator: Sketch 3.3.1 (12002) - http://www.bohemiancoding.com/sketch -->
    <title></title>
    <desc>Created with Sketch.</desc>
    <defs></defs>
    <g id="Page-1" stroke="none" stroke-width="1" fill="none" fill-rule="evenodd" sketch:type="MSPage">
        <path d="M9.43359375,13.15625 C9.43359375,10.6953002 10.6640502,9.46484375 13.125,9.46484375 C15.5859498,9.46484375 16.8164062,10.6953002 16.8164062,13.15625 C16.8164062,15.6171998 15.5859498,16.8476562 13.125,16.8476562 C10.6640502,16.8476562 9.43359375,15.6171998 9.43359375,13.15625 L9.43359375,13.15625 Z M23.90625,2.375 C24.5312531,2.375 25.0781227,2.60937266 25.546875,3.078125 C26.0156273,3.54687734 26.25,4.09374688 26.25,4.71875 L26.25,20.65625 C26.25,21.2812531 26.0156273,21.8281227 25.546875,22.296875 C25.0781227,22.7656273 24.5312531,23 23.90625,23 L2.34375,23 C1.71874688,23 1.17187734,22.7656273 0.703125,22.296875 C0.234372656,21.8281227 0,21.2812531 0,20.65625 L0,4.71875 C0,4.09374688 0.234372656,3.54687734 0.703125,3.078125 C1.17187734,2.60937266 1.71874688,2.375 2.34375,2.375 L7.5,2.375 L9.375,0.5 L16.875,0.5 L18.75,2.375 L23.90625,2.375 Z M13.125,19.71875 C14.921884,19.71875 16.4648373,19.0742252 17.7539062,17.7851562 C19.0429752,16.4960873 19.6875,14.953134 19.6875,13.15625 C19.6875,11.359366 19.0429752,9.8164127 17.7539062,8.52734375 C16.4648373,7.2382748 14.921884,6.59375 13.125,6.59375 C11.328116,6.59375 9.7851627,7.2382748 8.49609375,8.52734375 C7.2070248,9.8164127 6.5625,11.359366 6.5625,13.15625 C6.5625,14.953134 7.2070248,16.4960873 8.49609375,17.7851562 C9.7851627,19.0742252 11.328116,19.71875 13.125,19.71875 L13.125,19.71875 Z" id="" fill="#669EFF" sketch:type="MSShapeGroup"></path>
    </g>
</svg>

<svg width="27" height="23" viewBox="0 0 27 23" xmlns="http://www.w3.org/2000/svg"><title></title><path d="M9.434 13.156c0-2.46 1.23-3.69 3.69-3.69 2.462 0 3.692 1.23 3.692 3.69s-1.23 3.692-3.69 3.692c-2.462 0-3.692-1.23-3.692-3.692zm14.472-10.78c.625 0 1.172.233 1.64.702.47.47.704 1.016.704 1.64v15.938c0 .625-.234 1.172-.703 1.64-.47.47-1.016.704-1.64.704H2.343c-.625 0-1.172-.234-1.64-.703-.47-.47-.704-1.016-.704-1.64V4.718c0-.626.234-1.173.703-1.642.47-.47 1.016-.703 1.64-.703H7.5L9.375.5h7.5l1.875 1.875h5.156zm-10.78 17.343c1.796 0 3.34-.646 4.628-1.935 1.29-1.29 1.933-2.832 1.933-4.63 0-1.796-.644-3.34-1.933-4.628-1.29-1.29-2.832-1.933-4.63-1.933-1.796 0-3.34.644-4.628 1.933-1.29 1.29-1.934 2.832-1.934 4.63 0 1.796.645 3.34 1.934 4.628 1.29 1.29 2.832 1.934 4.63 1.934z" fill="#669EFF" fill-rule="evenodd"/></svg>
